X: 20343
T: TEMPEST WALTZ
C:
%R: waltz
B: Elias Howe "The Musician's Companion" 1843 p.34 #3
S: http://imslp.org/wiki/The_Musician's_Companion_(Howe,_Elias)
Z: 2015 John Chambers <jc:trillian.mit.edu>
M: 3/8
L: 1/16
K: C
% - - - - - - - - - - - - - - - - - - - - - - - - -
(e>f) |\
(d2c2) (B>c) | (A2G2) (AB) | (.c2.c2.c2) | d4 (e>f) |\
(d2c2) (B>d) | (A2G2) (A>B) | .c2.c2 d>B | c4 ::\
(GB) |\
d2(dB)(GB) | d2(dB)(GB) | d2(dB)(GB) | d4 (e>f) |
d2c2 (Bc) | (A2G2) (A>B) | .c2.c2 d>B | c4 ::\
(c>B) |\
c2e2 (d>c) | d2g2 (c>B) | c2e2 d>c | d4 {d}c>B |\
c2e2 {e}d>c | d2g2 {d}c>B | (c2e2) (dg) | c4 :|
% - - - - - - - - - - - - - - - - - - - - - - - - -

%%sep 1 1 500

